X:35
T:Rock the Cradle, Joe
M:4/4
R:reel
Q:1/2=120
L:1/8
K:D
fg|"D"a2a2 fefg|"D"a2a2 fefg | "D"a2a2 f2e2 |"D"[f3d3]e [f2d2] f2-|
"D"f2e2 d2e2|"D"fgfe d2ef|"G"gfed "A"cABc|"D"d6:|
|:D2|"A"Acec Acec |"D"dcde f2f2|"G"gfgf g2a2|"D"f3gf4|
"A"Acec Acec |"D"dcde f2ef|"G"gfed "A"cABc|"D"d3c d2:|
